data/playwrite-au-sa.svg

<svg width="122.44" height="26.67" viewBox="0 0 122.44 26.67" xmlns="http://www.w3.org/2000/svg"><path transform="translate(0 19.782) scale(.014 -.014)" d="m114-14q-47 0-39 30l271 943q4 14 16 20.5t34 6.5h178q100 0 167-23.5t101-72 34-122.5q0-83-31-145.5t-88.5-106.5-136.5-71.5-173-39.5q-43-5-88.5-8t-86.5-3l-109-380q-5-14-15.5-21t-33.5-7zm180 488q27 0 56.5 1.5t59.5 4 58 6.5q101 16 171.5 50.5t108.5 89.5 38 133q0 52-24 84.5t-73 47.5-127 15h-143z"/><path transform="translate(10.78 19.782) scale(.014 -.014)" d="m129-15q-55 0-70.5 42.5t9.5 124.5l239 820q6 19 15.5 25t28.5 6q30 0 39-9t3-29l-253-862q-6-21-3.5-31.5t15.5-10.5q9 0 17.5 6t19 18 25.5 30q7 10 15.5 12t19.5-6q16-9 19.5-19t-2.5-20q-19-33-40.5-55t-46-32-50.5-10z"/><path transform="translate(14.966 19.782) scale(.014 -.014)" d="m157-17q-36 0-63 19t-41.5 54.5-14.5 83.5q0 47 13.5 99t40.5 101.5 66 90 89 64.5 112 24q29 0 60.5-7.5t61.5-21.5l1 4q5 13 15 17t27 4q30 0 39-9t3-29l-112-374q-5-18-5-27t4-12 9-3q10 0 20 6.5t22 18.5 25 29q8 10 16 12t19-6q16-10 19.5-19.5t-1.5-20.5q-9-16-28.5-39t-47-40-63.5-17q-35 0-53 15.5t-22 39 0.5 51 11.5 51.5q2 4 2.5 8t0.5 9q-39-59-78-98t-76.5-58.5-71.5-19.5zm-28 172q0-28 6-49t18.5-32 29.5-11q35 0 79 37.5t91.5 109 96.5 174.5l10 34q-32 14-60.5 18t-51.5 4q-41 0-75.5-18.5t-61-49.5-45-69-28-76.5-9.5-71.5z"/><path transform="translate(23.674 19.782) scale(.014 -.014)" d="m158-15q-45 0-71 21.5t-30 65 15 107.5l89 305q6 19 15.5 25t28.5 6q30 0 39-9t3-29l-95-318q-8-25-9.5-47t8.5-34.5 37-12.5q35 0 75 29.5t81 82.5 80.5 125.5 72.5 159.5l4 22q6 19 16 25t29 6q30 0 39-9t2-29l-214-740q-27-91-58-145t-75-76.5-113-22.5q-36 0-68.5 9t-59.5 24.5-49 32.5q-16 14-20.5 27.5t15.5 31.5q18 15 28.5 16.5t27.5-13.5q27-22 59-36t71-14q42 0 70 16.5t48.5 53.5 37.5 99l130 449q-30-50-61.5-88t-64.5-64-66.5-39-66.5-13z"/><path transform="translate(32.466 19.782) scale(.014 -.014)" d="m155-15q-21 0-29 8.5t-10 28.5l-28 453q-1 14 7.5 27t36.5 13q21 0 30.5-8t10.5-30l16-357 228 365q11 17 24 23.5t31 6.5q17 0 29-9.5t14-34.5l25-350 219 367q10 17 21 22t25 5q29 0 39-14t-2-33l-281-457q-7-11-21.5-18.5t-36.5-7.5-30.5 8.5-8.5 28.5l-25 356-230-367q-6-10-19-18t-35-8z"/><path transform="translate(43.722 19.782) scale(.014 -.014)" d="m65-15q-17 0-30.5 7t-7.5 25l134 467q6 19 15.5 25t28.5 6q30 0 39-9t3-29l-47-161q30 49 60.5 87t60 64 56.5 39 49 13q27 0 47.5-13t32.5-31q8-10 6-21.5t-12-22.5q-11-11-21-16t-18 4q-10 8-22 14t-23 6q-26 0-63-28.5t-77.5-81-81-124-73.5-156.5l-9-38q-3-13-13.5-19.5t-33.5-6.5z"/><path transform="translate(50.078 19.782) scale(.014 -.014)" d="m127-15q-55 0-70 42.5t9 124.5l95 332q6 19 15.5 25t28.5 6q30 0 39-9t3-29l-109-374q-6-21-3.5-31.5t15.5-10.5q8 0 17 6t19.5 18 26.5 30q7 10 15 12t20-6q15-9 19-19t-2-20q-20-33-41.5-55t-45.5-32-51-10zm133 684q-21 0-35 13.5t-14 38.5q0 28 17 51t53 23q22 0 36-13t14-39q0-28-17-51t-54-23z"/><path transform="translate(54.278 19.782) scale(.014 -.014)" d="m162-15q-39 0-62.5 18t-28.5 54 11 88l78 275h-76q-11 0-15.5 10t0.5 30 14.5 30 21.5 10h79l58 199q6 19 15.5 25t29.5 6q30 0 39-9t2-29l-57-192h127q11 0 15.5-9.5t-0.5-30.5q-4-19-14-29.5t-21-10.5h-130l-87-295q-10-34-4.5-49t23.5-15q20 0 46.5 17t53.5 55q9 9 18 10.5t24-7.5q15-8 17.5-18t-1.5-18q-12-22-36.5-49t-59.5-46.5-80-19.5z"/><path transform="translate(59.71 19.782) scale(.014 -.014)" d="m227-19q-61 0-100 25t-57.5 68.5-18.5 96.5q0 59 20.5 120.5t59.5 113 96.5 83 131.5 31.5q48 0 79.5-15t47.5-41.5 16-63.5q0-42-25-75t-67-59-95.5-45-109.5-31.5-109-20.5l7 70q34 6 75 14.5t82 20.5 75.5 29 55 39 20.5 51q0 25-17.5 36.5t-45.5 11.5q-47 0-86-24t-65.5-63-41.5-85-15-90q0-35 10.5-62t32-41 55.5-14 61 13.5 51 36 47 48.5q12 14 27.5 10.5t26.5-14.5q10-11 11.5-23t-9.5-27q-37-47-75-74t-76-38.5-75-11.5z"/><path transform="translate(71.274 19.782) scale(.014 -.014)" d="m-7-14q-26 0-34 15t6 37l581 925q15 23 29 31.5t39 8.5q19 0 30.5-9.5t12.5-40.5l77-922q3-20-8.5-32.5t-37.5-12.5q-22 0-29.5 8.5t-9.5 28.5l-20 256h-414l-158-253q-17-26-27.5-33t-36.5-7zm274 373h355l-42 504z"/><path transform="translate(82.824 19.782) scale(.014 -.014)" d="m418-19q-82 0-142 23t-95 67-42 109.5 17 148.5l182 647q5 14 16.5 20.5t34.5 6.5 34-7 7-23l-188-654q-25-87-10.5-143t64.5-83 129-27q86 0 150.5 29t108 85.5 66.5 138.5l181 657q4 14 15.5 20.5t34.5 6.5q47 0 39-30l-184-664q-29-107-87.5-180t-141.5-110.5-189-37.5z"/><path transform="translate(100.31 19.782) scale(.014 -.014)" d="m344-19q-50 0-94 12.5t-80.5 34-66 49-51.5 57.5q-9 12-4 22.5t15 20.5q15 11 25.5 14t20.5-8q26-30 61-56.5t79-43.5 95-17q54 0 100 13.5t80 39 52.5 63.5 18.5 87q0 33-10.5 60t-30.5 50.5-49.5 44-68.5 40.5q-35 19-66.5 39.5t-58 44-46 52-30.5 64-11 79.5q0 57 22 105t63.5 82.5 99 53.5 127.5 19q57 0 102.5-16t83.5-42.5 69-58.5q11-10 8.5-21.5t-15.5-23.5q-11-11-23-13t-23 6q-26 22-54 41t-63 31-85 12q-48 0-88-11t-69-33-45.5-55-16.5-76q0-36 9.5-63.5t29-50.5 51-44 75.5-44q47-24 84.5-51t65-59.5 42-72 14.5-88.5q0-64-25.5-117t-72-91.5-109.5-59.5-137-21z"/><path transform="translate(110.89 19.782) scale(.014 -.014)" d="m-7-14q-26 0-34 15t6 37l581 925q15 23 29 31.5t39 8.5q19 0 30.5-9.5t12.5-40.5l77-922q3-20-8.5-32.5t-37.5-12.5q-22 0-29.5 8.5t-9.5 28.5l-20 256h-414l-158-253q-17-26-27.5-33t-36.5-7zm274 373h355l-42 504z"/></svg>

<?xml version="1.0" encoding="utf-8" ?>
<svg baseProfile="tiny" height="100%" version="1.2" width="100%" xmlns="http://www.w3.org/2000/svg" xmlns:ev="http://www.w3.org/2001/xml-events" xmlns:xlink="http://www.w3.org/1999/xlink"><defs /><g><path d="M114 -14Q67 -14 75 16L346 959Q350 973 362.0 979.5Q374 986 396 986H574Q674 986 741.0 962.5Q808 939 842.0 890.5Q876 842 876 768Q876 685 845.0 622.5Q814 560 756.5 516.0Q699 472 620.0 444.5Q541 417 447 405Q404 400 358.5 397.0Q313 394 272 394L163 14Q158 0 147.5 -7.0Q137 -14 114 -14ZM294 474Q321 474 350.5 475.5Q380 477 410.0 479.5Q440 482 468 486Q569 502 639.5 536.5Q710 571 748.0 626.0Q786 681 786 759Q786 811 762.0 843.5Q738 876 689.0 891.0Q640 906 562 906H419Z" transform="translate(0.0, 72) scale(0.072, -0.072)" /><path d="M129 -15Q74 -15 58.5 27.5Q43 70 68 152L307 972Q313 991 322.5 997.0Q332 1003 351 1003Q381 1003 390.0 994.0Q399 985 393 965L140 103Q134 82 136.5 71.5Q139 61 152 61Q161 61 169.5 67.0Q178 73 188.5 85.0Q199 97 214 115Q221 125 229.5 127.0Q238 129 249 121Q265 112 268.5 102.0Q272 92 266 82Q247 49 225.5 27.0Q204 5 179.5 -5.0Q155 -15 129 -15Z" transform="translate(55.44, 72) scale(0.072, -0.072)" /><path d="M157 -17Q121 -17 94.0 2.0Q67 21 52.5 56.5Q38 92 38 140Q38 187 51.5 239.0Q65 291 92.0 340.5Q119 390 158.0 430.5Q197 471 247.0 495.0Q297 519 359 519Q388 519 419.5 511.5Q451 504 481 490L482 494Q487 507 497.0 511.0Q507 515 524 515Q554 515 563.0 506.0Q572 497 566 477L454 103Q449 85 449.0 76.0Q449 67 453.0 64.0Q457 61 462 61Q472 61 482.0 67.5Q492 74 504.0 86.0Q516 98 529 115Q537 125 545.0 127.0Q553 129 564 121Q580 111 583.5 101.5Q587 92 582 81Q573 65 553.5 42.0Q534 19 506.5 2.0Q479 -15 443 -15Q408 -15 390.0 0.5Q372 16 368.0 39.5Q364 63 368.5 90.5Q373 118 380 142Q382 146 382.5 150.0Q383 154 383 159Q344 100 305.0 61.0Q266 22 228.5 2.5Q191 -17 157 -17ZM129 155Q129 127 135.0 106.0Q141 85 153.5 74.0Q166 63 183 63Q218 63 262.0 100.5Q306 138 353.5 209.5Q401 281 450 384L460 418Q428 432 399.5 436.0Q371 440 348 440Q307 440 272.5 421.5Q238 403 211.5 372.0Q185 341 166.5 303.0Q148 265 138.5 226.5Q129 188 129 155Z" transform="translate(76.96799999999999, 72) scale(0.072, -0.072)" /><path d="M158 -15Q113 -15 87.0 6.5Q61 28 57.0 71.5Q53 115 72 179L161 484Q167 503 176.5 509.0Q186 515 205 515Q235 515 244.0 506.0Q253 497 247 477L152 159Q144 134 142.5 112.0Q141 90 151.0 77.5Q161 65 188 65Q223 65 263.0 94.5Q303 124 344.0 177.0Q385 230 424.5 302.5Q464 375 497 462L501 484Q507 503 517.0 509.0Q527 515 546 515Q576 515 585.0 506.0Q594 497 587 477L373 -263Q346 -354 315.0 -408.0Q284 -462 240.0 -484.5Q196 -507 127 -507Q91 -507 58.5 -498.0Q26 -489 -1.0 -473.5Q-28 -458 -50 -441Q-66 -427 -70.5 -413.5Q-75 -400 -55 -382Q-37 -367 -26.5 -365.5Q-16 -364 1 -379Q28 -401 60.0 -415.0Q92 -429 131 -429Q173 -429 201.0 -412.5Q229 -396 249.5 -359.0Q270 -322 287 -260L417 189Q387 139 355.5 101.0Q324 63 291.0 37.0Q258 11 224.5 -2.0Q191 -15 158 -15Z" transform="translate(121.75199999999998, 72) scale(0.072, -0.072)" /><path d="M155 -15Q134 -15 126.0 -6.5Q118 2 116 22L88 475Q87 489 95.5 502.0Q104 515 132 515Q153 515 162.5 507.0Q172 499 173 477L189 120L417 485Q428 502 441.0 508.5Q454 515 472 515Q489 515 501.0 505.5Q513 496 515 471L540 121L759 488Q769 505 780.0 510.0Q791 515 805 515Q834 515 844.0 501.0Q854 487 842 468L561 11Q554 0 539.5 -7.5Q525 -15 503 -15Q481 -15 472.5 -6.5Q464 2 464 22L439 378L209 11Q203 1 190.0 -7.0Q177 -15 155 -15Z" transform="translate(166.96799999999996, 72) scale(0.072, -0.072)" /><path d="M65 -15Q48 -15 34.5 -8.0Q21 -1 27 17L161 484Q167 503 176.5 509.0Q186 515 205 515Q235 515 244.0 506.0Q253 497 247 477L200 316Q230 365 260.5 403.0Q291 441 320.5 467.0Q350 493 377.0 506.0Q404 519 426 519Q453 519 473.5 506.0Q494 493 506 475Q514 465 512.0 453.5Q510 442 500 431Q489 420 479.0 415.0Q469 410 461 419Q451 427 439.0 433.0Q427 439 416 439Q390 439 353.0 410.5Q316 382 275.5 329.5Q235 277 194.5 205.5Q154 134 121 49L112 11Q109 -2 98.5 -8.5Q88 -15 65 -15Z" transform="translate(224.85599999999997, 72) scale(0.072, -0.072)" /><path d="M127 -15Q72 -15 57.0 27.5Q42 70 66 152L161 484Q167 503 176.5 509.0Q186 515 205 515Q235 515 244.0 506.0Q253 497 247 477L138 103Q132 82 134.5 71.5Q137 61 150 61Q158 61 167.0 67.0Q176 73 186.5 85.0Q197 97 213 115Q220 125 228.0 127.0Q236 129 248 121Q263 112 267.0 102.0Q271 92 265 82Q245 49 223.5 27.0Q202 5 178.0 -5.0Q154 -15 127 -15ZM260 669Q239 669 225.0 682.5Q211 696 211 721Q211 749 228.0 772.0Q245 795 281 795Q303 795 317.0 782.0Q331 769 331 743Q331 715 314.0 692.0Q297 669 260 669Z" transform="translate(257.544, 72) scale(0.072, -0.072)" /><path d="M162 -15Q123 -15 99.5 3.0Q76 21 71.0 57.0Q66 93 82 145L160 420H84Q73 420 68.5 430.0Q64 440 69 460Q74 480 83.5 490.0Q93 500 105 500H184L242 699Q248 718 257.5 724.0Q267 730 287 730Q317 730 326.0 721.0Q335 712 328 692L271 500H398Q409 500 413.5 490.5Q418 481 413 460Q409 441 399.0 430.5Q389 420 378 420H248L161 125Q151 91 156.5 76.0Q162 61 180 61Q200 61 226.5 78.0Q253 95 280 133Q289 142 298.0 143.5Q307 145 322 136Q337 128 339.5 118.0Q342 108 338 100Q326 78 301.5 51.0Q277 24 242.0 4.5Q207 -15 162 -15Z" transform="translate(279.144, 72) scale(0.072, -0.072)" /><path d="M227 -19Q166 -19 127.0 6.0Q88 31 69.5 74.5Q51 118 51 171Q51 230 71.5 291.5Q92 353 131.0 404.5Q170 456 227.5 487.5Q285 519 359 519Q407 519 438.5 504.0Q470 489 486.0 462.5Q502 436 502 399Q502 357 477.0 324.0Q452 291 410.0 265.0Q368 239 314.5 220.0Q261 201 205.0 188.5Q149 176 96 168L103 238Q137 244 178.0 252.5Q219 261 260.0 273.0Q301 285 335.5 302.0Q370 319 390.5 341.0Q411 363 411 392Q411 417 393.5 428.5Q376 440 348 440Q301 440 262.0 416.0Q223 392 196.5 353.0Q170 314 155.0 268.0Q140 222 140 178Q140 143 150.5 116.0Q161 89 182.5 75.0Q204 61 238 61Q272 61 299.0 74.5Q326 88 350.0 110.5Q374 133 397 159Q409 173 424.5 169.5Q440 166 451 155Q461 144 462.5 132.0Q464 120 453 105Q416 58 378.0 31.0Q340 4 302.0 -7.5Q264 -19 227 -19Z" transform="translate(307.08, 72) scale(0.072, -0.072)" /><path d="M-7 -14Q-33 -14 -41.0 1.0Q-49 16 -35 38L546 963Q561 986 575.0 994.5Q589 1003 614 1003Q633 1003 644.5 993.5Q656 984 657 953L734 31Q737 11 725.5 -1.5Q714 -14 688 -14Q666 -14 658.5 -5.5Q651 3 649 23L629 279H215L57 26Q40 0 29.5 -7.0Q19 -14 -7 -14ZM267 359H622L580 863Z" transform="translate(366.552, 72) scale(0.072, -0.072)" /><path d="M418 -19Q336 -19 276.0 4.0Q216 27 181.0 71.0Q146 115 139.0 180.5Q132 246 156 329L338 976Q343 990 354.5 996.5Q366 1003 389 1003Q412 1003 423.0 996.0Q434 989 430 973L242 319Q217 232 231.5 176.0Q246 120 296.0 93.0Q346 66 425 66Q511 66 575.5 95.0Q640 124 683.5 180.5Q727 237 750 319L931 976Q935 990 946.5 996.5Q958 1003 981 1003Q1028 1003 1020 973L836 309Q807 202 748.5 129.0Q690 56 607.0 18.5Q524 -19 418 -19Z" transform="translate(425.952, 72) scale(0.072, -0.072)" /><path d="M344 -19Q294 -19 250.0 -6.5Q206 6 169.5 27.5Q133 49 103.5 76.5Q74 104 52 134Q43 146 48.0 156.5Q53 167 63 177Q78 188 88.5 191.0Q99 194 109 183Q135 153 170.0 126.5Q205 100 249.0 83.0Q293 66 344 66Q398 66 444.0 79.5Q490 93 524.0 118.5Q558 144 576.5 182.0Q595 220 595 269Q595 302 584.5 329.0Q574 356 554.0 379.5Q534 403 504.5 423.5Q475 444 436 464Q401 483 369.5 503.5Q338 524 311.5 547.5Q285 571 265.5 599.5Q246 628 235.0 663.5Q224 699 224 743Q224 800 246.0 848.0Q268 896 309.5 930.5Q351 965 408.5 984.0Q466 1003 536 1003Q593 1003 638.5 987.0Q684 971 722.0 944.5Q760 918 791 886Q802 876 799.5 864.5Q797 853 784 841Q773 830 761.0 828.0Q749 826 738 834Q712 856 684.0 875.0Q656 894 621.0 906.0Q586 918 536 918Q488 918 448.0 907.0Q408 896 379.0 874.0Q350 852 333.5 819.0Q317 786 317 743Q317 707 326.5 679.5Q336 652 355.5 629.0Q375 606 406.5 585.0Q438 564 482 541Q529 517 566.5 490.0Q604 463 631.5 430.5Q659 398 673.5 358.5Q688 319 688 270Q688 206 662.5 153.0Q637 100 590.5 61.5Q544 23 481.0 2.0Q418 -19 344 -19Z" transform="translate(515.88, 72) scale(0.072, -0.072)" /><path d="M-7 -14Q-33 -14 -41.0 1.0Q-49 16 -35 38L546 963Q561 986 575.0 994.5Q589 1003 614 1003Q633 1003 644.5 993.5Q656 984 657 953L734 31Q737 11 725.5 -1.5Q714 -14 688 -14Q666 -14 658.5 -5.5Q651 3 649 23L629 279H215L57 26Q40 0 29.5 -7.0Q19 -14 -7 -14ZM267 359H622L580 863Z" transform="translate(570.312, 72) scale(0.072, -0.072)" /></g></svg>
